src/img/dot7.svg

<svg height="15" viewBox="0 0 15 15" width="15" xmlns="http://www.w3.org/2000/svg"><path d="m571.571572 123.408745c-3.254502-.432225-6.26866-3.264844-5.429424-6.745801 1.000779-3.087323 3.431806-4.966731 5.307282-7.062252.54184-.324925 1.152339-.524245 1.784854-.582732 1.29048-.105005 2.575939.252963 3.61699 1.007239.523935.372103.969462.83993 1.312045 1.377718 2.391626 3.534985 4.960555 9.690336 0 12.117743-1.462681.574465-3.083463.634473-4.586248.169803-.610712-.057887-1.213543-.154366-2.005499-.281718z" fill="#e15f3d" transform="translate(-566 -109)"/></svg>

<?xml version="1.0" encoding="UTF-8"?>
<svg width="15px" height="15px" viewBox="0 0 15 15" version="1.1" xmlns="http://www.w3.org/2000/svg" xmlns:xlink="http://www.w3.org/1999/xlink">
    <!-- Generator: Sketch 49.2 (51160) - http://www.bohemiancoding.com/sketch -->
    <title>puce7</title>
    <desc>Created with Sketch.</desc>
    <defs></defs>
    <g id="Page-1" stroke="none" stroke-width="1" fill="none" fill-rule="evenodd">
        <g id="1-HOMEPAGE" transform="translate(-1291.000000, -5823.000000)" fill="#E15F3D" fill-rule="nonzero">
            <g id="Page-1" transform="translate(0.000000, 5049.000000)">
                <g id="Group-14">
                    <g id="footer" transform="translate(725.000000, 665.000000)">
                        <path d="M571.571572,123.408745 C568.31707,122.97652 565.302912,120.143901 566.142148,116.662944 C567.142927,113.575621 569.573954,111.696213 571.44943,109.600692 C571.99127,109.275767 572.601769,109.076447 573.234284,109.01796 C574.524764,108.912955 575.810223,109.270923 576.851274,110.025199 C577.375209,110.397302 577.820736,110.865129 578.163319,111.402917 C580.554945,114.937902 583.123874,121.093253 578.163319,123.52066 C576.700638,124.095125 575.079856,124.155133 573.577071,123.690463 C572.966359,123.632576 572.363528,123.536097 571.571572,123.408745 Z" id="puce7"></path>
                    </g>
                </g>
            </g>
        </g>
    </g>
</svg>
